_includes/icons/ios-flickr.svg

<svg fill="#666" height="50" viewBox="0 0 50 50" width="50" xmlns="http://www.w3.org/2000/svg"><path d="m9 4c-2.7495161 0-5 2.2504839-5 5v32c0 2.749516 2.2504839 5 5 5h32c2.749516 0 5-2.250484 5-5v-32c0-2.7495161-2.250484-5-5-5zm0 2h32c1.668484 0 3 1.3315161 3 3v32c0 1.668484-1.331516 3-3 3h-32c-1.6684839 0-3-1.331516-3-3v-32c0-1.6684839 1.3315161-3 3-3zm7 11c-4.406433 0-8 3.593567-8 8s3.593567 8 8 8 8-3.593567 8-8-3.593567-8-8-8zm18 0c-4.406433 0-8 3.593567-8 8s3.593567 8 8 8 8-3.593567 8-8-3.593567-8-8-8zm-18 2c3.325553 0 6 2.674447 6 6s-2.674447 6-6 6-6-2.674447-6-6 2.674447-6 6-6zm18 0c3.325553 0 6 2.674447 6 6s-2.674447 6-6 6-6-2.674447-6-6 2.674447-6 6-6z"/></svg>

<svg xmlns="http://www.w3.org/2000/svg" viewBox="0 0 50 50" width="50" height="50" fill="#666"><path style="line-height:normal;text-indent:0;text-align:start;text-decoration-line:none;text-decoration-style:solid;text-decoration-color:#000;text-transform:none;block-progression:tb;isolation:auto;mix-blend-mode:normal" d="M 9 4 C 6.2504839 4 4 6.2504839 4 9 L 4 41 C 4 43.749516 6.2504839 46 9 46 L 41 46 C 43.749516 46 46 43.749516 46 41 L 46 9 C 46 6.2504839 43.749516 4 41 4 L 9 4 z M 9 6 L 41 6 C 42.668484 6 44 7.3315161 44 9 L 44 41 C 44 42.668484 42.668484 44 41 44 L 9 44 C 7.3315161 44 6 42.668484 6 41 L 6 9 C 6 7.3315161 7.3315161 6 9 6 z M 16 17 C 11.593567 17 8 20.593567 8 25 C 8 29.406433 11.593567 33 16 33 C 20.406433 33 24 29.406433 24 25 C 24 20.593567 20.406433 17 16 17 z M 34 17 C 29.593567 17 26 20.593567 26 25 C 26 29.406433 29.593567 33 34 33 C 38.406433 33 42 29.406433 42 25 C 42 20.593567 38.406433 17 34 17 z M 16 19 C 19.325553 19 22 21.674447 22 25 C 22 28.325553 19.325553 31 16 31 C 12.674447 31 10 28.325553 10 25 C 10 21.674447 12.674447 19 16 19 z M 34 19 C 37.325553 19 40 21.674447 40 25 C 40 28.325553 37.325553 31 34 31 C 30.674447 31 28 28.325553 28 25 C 28 21.674447 30.674447 19 34 19 z"/></svg>
